assets_src/svg/book_open_large_24_regular.svg

<svg xmlns="http://www.w3.org/2000/svg" width="24" height="24" viewBox="0 0 24 24"><path d="M4.338667 1.516C4.161333 1.672 4.14 1.734667 4.12 2.250667L4.093333 2.817333L3.5 2.844C2.697333 2.874667 2.598667 2.973333 2.562667 3.749333L2.536 4.317333L2.161333 4.317333C1.964 4.317333 1.697333 4.354667 1.588 4.390667C1.145333 4.546667 1.166667 4.161333 1.156 11.254666C1.145333 15.344 1.166667 17.817333 1.218667 17.964C1.36 18.426666 1.136 18.406666 6.026667 18.406666C10.068 18.406666 10.469333 18.416 10.557333 18.526666C10.776 18.792 11.193333 18.906666 11.958666 18.906666C12.573333 18.906666 12.749333 18.874666 13.010666 18.754666C13.182666 18.672 13.338666 18.557333 13.36 18.505333C13.385333 18.421333 14.145333 18.406666 17.869333 18.406666C22.797333 18.406666 22.573333 18.426666 22.713333 17.964C22.759999 17.817333 22.781333 15.333333 22.775999 11.245333L22.759999 4.745333L22.562666 4.552C22.395999 4.385333 22.306666 4.354667 21.843999 4.333333L21.311999 4.306667L21.311999 3.776C21.311999 3.286667 21.297333 3.229333 21.103999 3.036C20.906666 2.849333 20.863999 2.833333 20.327999 2.833333L19.754666 2.833333L19.754666 2.281333C19.754666 1.817333 19.734666 1.697333 19.614666 1.573333C19.401333 1.344 19.202666 1.317333 18.093333 1.374667C16.333333 1.453333 15.208 1.697333 14.052 2.265333C13.297333 2.636 12.781333 3.030667 12.26 3.64L11.942666 4.021333L11.682666 3.688C10.464 2.150667 8.229333 1.354667 5.156 1.344C4.609333 1.344 4.516 1.364 4.338667 1.516M6.969333 2.270667C8.469333 2.426667 9.806666 3 10.656 3.86C10.932 4.130667 11.245333 4.526667 11.354666 4.729333L11.557333 5.104L11.562666 10.713333C11.568 14.130666 11.541333 16.306666 11.505333 16.286666C11.396 16.193333 11.292 16.088 11.193333 15.978666C10.114666 14.792 8.14 14.030666 5.792 13.896C5.098667 13.864 4.958667 13.833333 4.948 13.74C4.942667 9.890666 4.942667 6.041333 4.948 2.188C4.958667 2.130667 6.046667 2.182667 6.969333 2.270667M18.973333 7.984L18.973333 13.854666L18.172 13.896C15.844 14.030666 14.130666 14.656 12.912 15.812L12.312 16.374666L12.354666 5.062667L12.546666 4.745333C13.114666 3.776 13.917333 3.136 15.130666 2.697333C15.958666 2.390667 16.693333 2.26 17.844 2.202667C18.202666 2.177333 18.562666 2.156 18.926666 2.136C18.953333 2.130667 18.973333 4.765333 18.973333 7.984M4.109333 8.921333C4.109333 14.536 4.109333 14.505333 4.453333 14.62C4.526667 14.64 4.978667 14.677333 5.453333 14.693333C7.896 14.781333 9.530666 15.390666 10.749333 16.661333C11.245333 17.182666 11.312 17.312 10.926666 17.005333C10.234666 16.473333 9.182666 16.073333 8.021333 15.896C6.973333 15.74 4.416 15.765333 3.442667 15.953333C3.406667 15.958666 3.38 13.354666 3.369333 9.828L3.364 3.682667L4.109333 3.682667ZM20.530666 9.828L20.530666 15.973333L19.844 15.88C18.969333 15.765333 16.776 15.754666 16.073333 15.86C14.786666 16.057333 13.749333 16.432 13.082666 16.942666C12.896 17.082666 12.745333 17.177333 12.745333 17.14C12.745333 17.036 13.604 16.193333 13.948 15.953333C15.088 15.172 16.562666 14.770666 18.516 14.697333C19.401333 14.672 19.442666 14.656 19.588 14.478666L19.754666 14.297333L19.754666 3.682667L20.530666 3.682667ZM2.552 10.74C2.552 16.546666 2.552 16.552 2.838667 16.729333C2.926667 16.786666 3.328 16.765333 4.197333 16.672C5.645333 16.526666 7.312 16.552 8.286666 16.745333C8.958666 16.88 9.854666 17.202666 10.125333 17.416C10.302666 17.557333 10.297333 17.557333 6.145333 17.557333L1.984 17.557333L1.984 5.166667L2.546667 5.166667ZM21.947999 11.364L21.947999 17.557333L17.76 17.557333C14.869333 17.557333 13.593333 17.530666 13.666666 17.478666C14.218666 17.104 15.265333 16.765333 16.250666 16.645333C17.130666 16.536 18.630666 16.552 19.645333 16.672C20.802666 16.812 20.953333 16.806666 21.150666 16.625333L21.311999 16.473333L21.311999 5.166667L21.947999 5.166667Z"/></svg>

<svg xmlns="http://www.w3.org/2000/svg" width="24" height="24" viewBox="0 0 24 24"><path fill="currentColor" d="M4.34 1.515c-.177.156-.198.22-.22.736l-.028.567-.594.028c-.8.028-.9.128-.935.906l-.028.567h-.376c-.198 0-.46.035-.573.07-.439.156-.418-.226-.432 6.868-.007 4.085.014 6.563.064 6.705.141.467-.085.446 4.807.446 4.043 0 4.446.007 4.531.12.22.262.637.376 1.402.376.616 0 .793-.029 1.055-.15.17-.084.326-.197.347-.247.028-.085.786-.099 4.51-.099 4.928 0 4.701.021 4.843-.446.05-.142.07-2.627.063-6.719l-.014-6.5-.198-.19c-.17-.17-.255-.199-.722-.22l-.531-.028v-.531c0-.489-.014-.546-.206-.737-.198-.19-.24-.205-.778-.205h-.574V2.28c0-.46-.021-.58-.141-.708-.213-.227-.411-.255-1.516-.198-1.762.077-2.888.325-4.042.892-.758.368-1.275.764-1.791 1.373l-.319.382-.262-.332c-1.218-1.537-3.455-2.337-6.528-2.344-.545 0-.637.021-.814.17m2.627.758c1.5.155 2.839.729 3.688 1.586.277.269.588.665.701.87l.199.376.007 5.607c.007 3.42-.022 5.593-.057 5.572a3 3 0 0 1-.312-.304c-1.076-1.19-3.051-1.947-5.402-2.082-.693-.035-.835-.064-.842-.156a3143 3143 0 0 1 0-11.554c.007-.057 1.097-.007 2.018.085m12.007 5.713v5.87l-.8.042c-2.329.135-4.042.758-5.26 1.912l-.602.566.021-5.657.022-5.657.19-.318c.567-.97 1.374-1.608 2.585-2.047.828-.304 1.565-.438 2.712-.495a82 82 0 0 1 1.083-.064c.028-.007.05 2.627.05 5.848m-14.868.935c0 5.614 0 5.586.347 5.7.071.02.524.056.999.07 2.442.092 4.078.7 5.295 1.968.496.524.567.652.177.347-.693-.53-1.741-.934-2.902-1.111-1.048-.156-3.604-.128-4.581.056-.036.007-.064-2.598-.07-6.124l-.008-6.145h.743zm16.426.906v6.145l-.687-.092c-.878-.113-3.072-.127-3.773-.02-1.289.197-2.323.573-2.988 1.082-.191.142-.34.234-.34.199 0-.107.857-.949 1.204-1.19 1.14-.779 2.612-1.182 4.566-1.253.885-.028.928-.042 1.076-.22l.163-.183V3.682h.779zm-17.983.913c0 5.806 0 5.813.29 5.99.085.057.489.035 1.36-.057 1.444-.148 3.115-.12 4.085.071.672.135 1.571.46 1.84.673.177.141.17.141-3.979.141H1.982V5.168h.567zm19.399.623v6.195h-4.191c-2.889 0-4.163-.028-4.093-.077.553-.376 1.6-.716 2.585-.836.878-.106 2.378-.092 3.398.028 1.154.142 1.303.135 1.501-.05l.163-.148V5.168h.637z"/></svg>
